images/ICONOS/PORQUE/FLECHA.svg

<svg width="84" height="84" viewBox="0 0 84 84" fill="none" xmlns="http://www.w3.org/2000/svg">
<path d="M44.6478 0C46.1858 0.213281 47.7354 0.365859 49.257 0.657891C50.9444 0.982734 52.6154 1.39781 54.275 1.8457C55.6636 2.22141 56.3169 3.3682 55.9361 4.5757C55.5734 5.72414 54.4161 6.26391 53.0603 5.84883C48.8614 4.56422 44.5674 4.01461 40.1879 4.25906C30.1635 4.81852 21.6049 8.67562 14.6533 15.9141C8.57336 22.2469 4.9408 29.8561 4.36629 38.5973C3.32724 54.4277 9.68791 66.6635 23.3334 74.8388C30.8644 79.3488 39.1866 80.8484 47.8289 79.3472C61.9389 76.8961 71.8435 68.9276 77.2505 55.6598C80.517 47.6438 80.6894 39.3717 78.2042 31.0833C77.6412 29.208 78.9035 27.8627 80.3414 28.0252C81.2393 28.1269 81.9566 28.6732 82.188 29.7429C82.7855 32.5139 83.5554 35.28 83.8082 38.0887C84.8144 49.2778 81.868 59.3972 74.8376 68.1745C67.6759 77.1159 58.2851 82.2363 46.9097 83.6998C46.1563 83.7966 45.4029 83.8999 44.6494 84C42.898 84 41.1482 84 39.3967 84C39.2162 83.9541 39.0373 83.8934 38.8518 83.8655C36.9083 83.5784 34.9435 83.3979 33.0246 82.9976C16.564 79.5555 3.41588 65.8284 0.645095 49.2368C0.390668 47.7061 0.21339 46.1623 0 44.625C0 42.8745 0 41.1255 0 39.375C0.0492439 39.1371 0.106695 38.8992 0.144449 38.6597C0.48259 36.5334 0.686131 34.376 1.172 32.2826C4.94409 16.0486 18.4271 3.37805 34.7826 0.643125C36.3141 0.388828 37.8571 0.213281 39.3951 0C41.1465 0 42.8963 0 44.6478 0Z" fill="#131313"/>
<path d="M42.1642 71.3229C27.8819 71.1441 15.6037 60.7737 13.2794 46.7824C10.6826 31.1489 20.7629 16.3702 36.2172 13.166C38.6926 12.6525 41.1974 12.4835 43.7236 12.6394C44.6248 12.6952 45.3782 13.0036 45.8395 13.8223C46.2318 14.5162 46.2695 15.2332 45.8411 15.9223C45.3733 16.672 44.6593 16.9427 43.8008 16.8623C39.8777 16.4948 36.1237 17.2003 32.5059 18.6867C22.2681 22.8933 15.9452 33.5787 17.1943 44.5266C18.5124 56.0634 27.0513 64.9228 38.5859 66.7209C51.6388 68.7553 64.5735 59.5612 66.7911 46.5839C67.1424 44.5315 67.1309 42.4052 67.1489 40.3118C67.1604 38.9632 67.8252 37.9395 69.076 37.8164C70.2546 37.7016 71.3429 38.553 71.3396 39.877C71.333 42.2461 71.4479 44.6791 70.9703 46.9727C68.38 59.3906 60.8589 67.2443 48.5594 70.4091C46.4862 70.9423 44.2981 71.0292 42.1642 71.3229Z" fill="#131313"/>
<path d="M61.5548 29.3557C60.2712 29.3557 58.8448 29.0063 57.7434 29.4541C56.6419 29.902 55.8573 31.1391 54.9496 32.0447C51.3302 35.6557 47.7157 39.2716 44.0979 42.8843C43.8664 43.1156 43.635 43.3552 43.374 43.5471C42.4975 44.1919 41.3468 44.0836 40.6196 43.3076C39.9089 42.5496 39.8531 41.4471 40.5031 40.6104C40.7033 40.3528 40.943 40.1231 41.1744 39.8918C45.4669 35.5999 49.7527 31.3015 54.0632 27.0277C54.5245 26.5699 54.7428 26.122 54.7296 25.4592C54.6886 23.4101 54.7296 21.3593 54.7067 19.3085C54.6968 18.4045 54.9923 17.6892 55.6423 17.0461C59.6409 13.0791 63.6231 9.09562 67.5954 5.10234C68.3374 4.35586 69.1499 3.96703 70.1692 4.37063C71.2099 4.78242 71.4841 5.65523 71.4693 6.69867C71.4463 8.33766 71.4972 9.97992 71.4479 11.6189C71.4266 12.3424 71.5924 12.6246 72.3852 12.5951C74.0792 12.5327 75.7765 12.5869 77.4721 12.5721C78.4636 12.5623 79.2629 12.8822 79.6569 13.837C80.0591 14.8116 79.7472 15.6319 79.02 16.3587C74.9722 20.3913 70.9292 24.4305 66.8962 28.4796C66.3167 29.062 65.6503 29.3262 64.8394 29.3147C63.7462 29.2983 62.6513 29.3098 61.5581 29.3098C61.5548 29.3262 61.5548 29.3409 61.5548 29.3557ZM72.6282 16.7475C71.5317 16.7475 70.6321 16.7524 69.7326 16.7459C68.0698 16.7344 67.2983 15.9502 67.2918 14.2685C67.2885 13.3596 67.2918 12.4507 67.2918 11.3334C64.4684 14.1586 61.8208 16.8049 59.178 19.4578C59.068 19.5677 58.9384 19.7252 58.9367 19.863C58.9203 21.6005 58.9252 23.3362 58.9252 25.1163C60.5946 25.1163 62.1523 25.1442 63.7068 25.0966C64.0679 25.0852 64.5062 24.908 64.7623 24.657C67.2212 22.2436 69.6489 19.8007 72.0848 17.3627C72.2342 17.2118 72.3655 17.0445 72.6282 16.7475Z" fill="#131313"/>
<path d="M42.1363 58.5851C33.4842 58.5736 26.2831 52.0012 25.4739 43.3781C24.6663 34.773 30.6363 26.9423 39.1965 25.4051C40.0812 25.2459 40.9857 25.159 41.8836 25.1295C43.2345 25.0835 44.175 25.9087 44.2423 27.108C44.3113 28.3287 43.415 29.272 42.0116 29.3098C39.9483 29.3639 38.0097 29.8348 36.1975 30.8159C31.2731 33.4835 28.7617 38.9189 29.8763 44.4806C30.9366 49.7684 35.4917 53.8141 40.9808 54.3441C48.1244 55.0331 54.3817 49.5994 54.6919 42.4364C54.7674 40.676 55.5684 39.7163 56.9029 39.7786C58.2489 39.8426 58.9794 40.8762 58.9006 42.612C58.5001 51.555 51.1086 58.5966 42.1363 58.5851Z" fill="#131313"/>
</svg>

<svg xmlns="http://www.w3.org/2000/svg" width="84" height="84" fill="none"><path fill="#131313" d="M44.648 0c1.538.213 3.087.366 4.609.658 1.687.325 3.358.74 5.018 1.188 1.389.375 2.042 1.522 1.661 2.73-.363 1.148-1.52 1.688-2.876 1.273-4.199-1.285-8.493-1.834-12.872-1.59-10.025.56-18.583 4.417-25.535 11.655-6.08 6.333-9.712 13.942-10.287 22.683-1.039 15.83 5.322 28.066 18.967 36.242 7.531 4.51 15.854 6.01 24.496 4.508 14.11-2.45 24.015-10.42 29.422-23.687 3.266-8.016 3.438-16.288.953-24.577-.563-1.875.7-3.22 2.137-3.058.898.102 1.616.648 1.847 1.718.597 2.77 1.367 5.537 1.62 8.346 1.006 11.189-1.94 21.308-8.97 30.085C67.676 77.117 58.285 82.236 46.91 83.7c-.754.097-1.507.2-2.26.3h-5.253c-.18-.046-.36-.107-.545-.135-1.944-.287-3.908-.467-5.827-.867-16.461-3.443-29.61-17.17-32.38-33.761-.254-1.53-.432-3.075-.645-4.612v-5.25c.05-.238.107-.476.144-.715.339-2.127.542-4.284 1.028-6.377C4.944 16.049 18.427 3.378 34.782.643 36.315.39 37.858.213 39.396 0h5.253Z"/><path fill="#131313" d="M42.164 71.323c-14.282-.179-26.56-10.55-28.885-24.54-2.596-15.634 7.484-30.413 22.938-33.617a28.242 28.242 0 0 1 7.507-.527c.9.056 1.654.365 2.116 1.183.392.694.43 1.411.001 2.1-.468.75-1.182 1.02-2.04.94-3.923-.367-7.677.338-11.295 1.825-10.238 4.206-16.56 14.892-15.312 25.84 1.318 11.536 9.857 20.396 21.392 22.194 13.053 2.034 25.987-7.16 28.205-20.137.351-2.053.34-4.179.358-6.272.011-1.349.676-2.372 1.927-2.496 1.179-.114 2.267.737 2.264 2.061-.007 2.37.108 4.802-.37 7.096C68.38 59.39 60.86 67.244 48.56 70.409c-2.074.533-4.262.62-6.396.914Z"/><path fill="#131313" d="M61.555 29.356c-1.284 0-2.71-.35-3.812.098-1.101.448-1.886 1.685-2.793 2.59-3.62 3.612-7.234 7.228-10.852 10.84-.232.232-.463.471-.724.663-.877.645-2.027.537-2.754-.24-.711-.757-.767-1.86-.117-2.697.2-.257.44-.487.671-.718 4.293-4.292 8.579-8.59 12.89-12.864.46-.458.679-.906.666-1.569-.041-2.049 0-4.1-.023-6.15-.01-.905.285-1.62.935-2.263 3.999-3.967 7.981-7.95 11.953-11.944.742-.746 1.555-1.135 2.574-.731 1.04.411 1.315 1.284 1.3 2.328-.023 1.639.028 3.28-.021 4.92-.021.723.144 1.006.937.976 1.694-.062 3.391-.008 5.087-.023.992-.01 1.79.31 2.185 1.265.402.975.09 1.795-.637 2.522a4426.4 4426.4 0 0 0-12.124 12.12c-.58.583-1.246.847-2.057.836-1.093-.017-2.188-.005-3.28-.005-.004.016-.004.03-.004.046Zm11.073-12.609c-1.096 0-1.996.005-2.895-.001-1.663-.012-2.435-.796-2.441-2.477-.004-.91 0-1.818 0-2.936-2.824 2.826-5.471 5.472-8.114 8.125-.11.11-.24.267-.241.405-.017 1.738-.012 3.473-.012 5.253 1.67 0 3.227.028 4.782-.02.36-.01.8-.188 1.055-.439 2.46-2.413 4.887-4.856 7.323-7.294.15-.151.28-.319.543-.616Z"/><path fill="#131313" d="M42.136 58.585c-8.652-.011-15.853-6.584-16.662-15.207-.808-8.605 5.162-16.436 13.723-17.973a18.68 18.68 0 0 1 2.687-.276c1.35-.046 2.291.78 2.358 1.979.07 1.22-.827 2.164-2.23 2.202-2.064.054-4.002.525-5.815 1.506-4.924 2.668-7.435 8.103-6.32 13.665 1.06 5.287 5.615 9.333 11.104 9.863 7.143.69 13.4-4.745 13.71-11.908.076-1.76.877-2.72 2.212-2.657 1.346.064 2.076 1.097 1.998 2.833-.4 8.943-7.792 15.985-16.765 15.973Z"/></svg>
